app/img/footer_logo.svg

<svg width="77" height="77" viewBox="0 0 77 77" fill="none" xmlns="http://www.w3.org/2000/svg">
<g clip-path="url(#clip0_1_215)">
<path d="M6.20968 38.6243L0 38.5001V37.0098L6.20968 37.134V38.6243Z" fill="#FFB966"/>
<path d="M3.2291 45.8273L6.95491 45.2063L7.2033 46.5724L0.993623 47.566L0.745235 46.324L4.22265 42.8466L0.372655 43.4676L0.124268 42.1015L6.33394 41.1079L6.58233 42.5982L3.2291 45.8273Z" fill="#FFB966"/>
<path d="M6.08558 54.7696C5.34042 55.2664 5.34041 56.0115 5.713 56.6325C6.08558 57.2535 6.45816 57.5019 6.83074 57.2535C7.20332 57.0051 7.07912 56.6325 6.95493 56.1357L6.58235 55.018C6.20977 54.0244 6.45816 53.1551 7.32751 52.6583C8.44525 52.0374 9.563 52.5341 10.3082 53.9003C11.1775 55.3906 10.805 56.6325 9.68719 57.2535L8.94203 56.0115C9.563 55.639 9.68719 55.018 9.31461 54.397C9.06622 53.9003 8.56945 53.6519 8.19687 53.9003C7.82429 54.0245 7.94848 54.397 8.07267 54.7696L8.44525 55.8874C8.81783 57.1293 8.56945 57.9986 7.70009 58.4954C6.58235 59.1164 5.46461 58.4954 4.71945 57.2535C3.85009 55.7632 4.09848 54.397 5.34042 53.6519L6.08558 54.7696Z" fill="#FFB966"/>
<path d="M15.1516 60.7307L12.1709 66.8162L11.0532 65.5743L11.6741 64.2081L9.93543 62.3452L8.6935 62.9662L7.69995 61.8484L14.0338 59.4888L15.1516 60.7307ZM11.1774 61.9726L12.2951 63.2146L13.2887 61.2275L11.1774 61.9726Z" fill="#FFB966"/>
<path d="M19.6227 69.0518L21.7339 65.9469L22.8517 66.6921L19.3743 71.9082L18.3807 71.2872L18.1323 66.3195L15.8968 69.6727L14.7791 68.9276L18.2565 63.7114L19.4985 64.4566L19.6227 69.0518Z" fill="#FFB966"/>
<path d="M26.4532 75.1372L28.0677 69.0518L32.5387 70.2937L32.1661 71.5356L29.1854 70.7905L28.8128 72.1566L31.0483 72.7776L30.6758 74.0195L28.5645 73.1501L27.9435 75.5098L26.4532 75.1372Z" fill="#FFB966"/>
<path d="M38.3757 77.0003C38.2516 76.8761 38.1274 76.3794 38.1274 75.7584C38.1274 75.0132 37.7548 74.7648 37.1338 74.7648H35.8919L35.7677 76.8761H34.2774L34.5257 70.6665L37.5064 70.7907C39.1209 70.7907 39.8661 71.66 39.8661 72.7777C39.8661 73.6471 39.2451 74.2681 38.4999 74.2681C39.1209 74.3923 39.4935 74.7648 39.6177 75.51C39.6177 76.3794 39.7419 76.7519 39.8661 77.0003H38.3757ZM37.258 73.5229C38.0032 73.5229 38.3757 73.3987 38.4999 72.7777C38.4999 72.281 38.1274 71.9084 37.3822 71.9084H36.1403V73.6471L37.258 73.5229Z" fill="#FFB966"/>
<path d="M45.7033 69.7969L49.5533 75.3856L47.9387 75.7582L47.0694 74.5162L44.5855 75.013L44.3371 76.5033L42.8468 76.8759L43.9646 70.1695L45.7033 69.7969ZM44.8339 73.8953L46.4484 73.5227L45.2065 71.6598L44.8339 73.8953Z" fill="#FFB966"/>
<path d="M55.1419 70.2935L53.5274 66.9403L54.7693 66.3193L57.5016 71.908L56.3838 72.4048L52.1612 70.1693L53.8999 73.771L52.658 74.3919L49.9258 68.8032L51.2919 68.1822L55.1419 70.2935Z" fill="#FFB966"/>
<path d="M58.8677 63.2145C60.358 61.9725 61.8483 62.2209 62.966 63.4628L61.8483 64.4564C61.2273 63.9596 60.4822 63.7112 59.737 64.3322C58.9918 64.9532 58.9918 65.9467 59.737 66.8161C60.4822 67.6854 61.4757 67.9338 62.2209 67.3129C62.966 66.6919 62.966 65.8225 62.4693 65.2016L63.587 64.3322C64.4564 65.5741 64.4564 67.1887 62.966 68.4306C61.5999 69.5483 59.737 69.4241 58.4951 67.9338C57.2531 66.1951 57.5015 64.3322 58.8677 63.2145Z" fill="#FFB966"/>
<path d="M63.5872 58.4951L68.4307 62.4693L67.4372 63.587L62.7178 59.6129L63.5872 58.4951Z" fill="#FFB966"/>
<path d="M69.1759 57.6261C69.921 57.9987 70.542 57.6261 70.9146 57.0052C71.2872 56.3842 71.2872 55.8874 70.9146 55.7632C70.542 55.5149 70.2936 55.8874 69.921 56.26L69.0517 57.1294C68.4307 57.8745 67.5613 58.2471 66.692 57.7503C65.5742 57.1294 65.45 55.8874 66.1952 54.6455C67.0646 53.1552 68.1823 52.7826 69.4242 53.4036L68.8033 54.6455C68.1823 54.2729 67.5613 54.5213 67.1888 55.2665C66.8162 55.7632 66.9404 56.26 67.313 56.5084C67.5613 56.6326 67.9339 56.5084 68.1823 56.1358L68.9275 55.2665C69.7968 54.2729 70.6662 54.0245 71.5355 54.6455C72.6533 55.2665 72.6533 56.6326 71.9081 57.8745C71.0388 59.3648 69.7968 59.9858 68.4307 59.2407L69.1759 57.6261Z" fill="#FFB966"/>
<path d="M69.1758 47.442C69.6726 45.5791 71.1629 44.9582 72.6532 45.3307L72.2806 46.6969C71.5355 46.5727 70.6661 46.8211 70.4177 47.8146C70.1693 48.8082 70.6661 49.5533 71.7838 49.9259C72.9016 50.2985 73.7709 49.9259 74.0193 48.9324C74.2677 47.9388 73.7709 47.3178 73.0258 46.9453L73.5226 45.5791C75.0129 46.0759 75.8822 47.442 75.2613 49.3049C74.7645 51.0436 73.15 52.0372 71.2871 51.4162C69.5484 50.7953 68.679 49.1807 69.1758 47.442Z" fill="#FFB966"/>
<path d="M77.0001 39.9905C76.8759 41.8534 75.5097 43.0953 73.6468 43.0953C71.7839 43.0953 70.4178 41.605 70.542 39.7421C70.6662 37.8792 72.0323 36.513 73.8952 36.6372C75.7581 36.6372 77.0001 38.1276 77.0001 39.9905ZM71.7839 39.7421C71.7839 40.7356 72.5291 41.4808 73.6468 41.4808C74.7646 41.4808 75.6339 40.8598 75.6339 39.8663C75.6339 38.8727 74.8888 38.1276 73.771 38.1276C72.6533 38.1276 71.7839 38.7485 71.7839 39.7421Z" fill="#FFB966"/>
<path d="M7.82418 15.2759L14.4065 16.8904L13.4129 18.1323L12.0468 17.7597L10.5565 19.871L11.3016 21.113L10.4323 22.3549L6.83063 16.642L7.82418 15.2759ZM9.93547 18.8775L10.929 17.5114L8.69354 16.8904L9.93547 18.8775Z" fill="#FFB966"/>
<path d="M14.9032 13.2888C15.5242 13.9098 16.2693 13.7856 16.7661 13.2888C17.2629 12.9163 17.3871 12.4195 17.1387 12.0469C16.8903 11.6743 16.6419 11.9227 16.1452 12.1711L15.1516 12.7921C14.2823 13.2888 13.4129 13.2888 12.6677 12.5437C11.9226 11.5501 12.0468 10.4324 13.2887 9.43889C14.5306 8.32115 15.7726 8.32115 16.7661 9.43889L15.7726 10.4324C15.2758 9.93566 14.6548 9.93566 14.1581 10.4324C13.6613 10.805 13.5371 11.3018 13.9097 11.5501C14.1581 11.7985 14.4064 11.7985 14.9032 11.5501L15.8968 10.9292C17.0145 10.3082 17.8839 10.3082 18.5048 11.1776C19.3742 12.1711 18.8774 13.413 17.8839 14.2824C16.6419 15.4001 15.1516 15.5243 14.1581 14.4066L14.9032 13.2888Z" fill="#FFB966"/>
<path d="M21.113 8.69349C21.6097 9.43865 22.3549 9.43865 22.9759 9.06607C23.5968 8.81769 23.8452 8.32091 23.5968 7.94833C23.3484 7.57575 22.9759 7.69994 22.4791 7.82414L21.3614 8.19672C20.3678 8.44511 19.4984 8.32091 19.0017 7.45156C18.3807 6.33381 18.8775 5.21607 20.2436 4.47091C21.7339 3.72575 22.9759 3.97414 23.5968 5.21607L22.3549 5.96123C21.9823 5.34027 21.3614 5.21607 20.7404 5.58865C20.1194 5.83704 19.9952 6.33382 20.2436 6.7064C20.3678 7.07898 20.7404 6.95478 21.113 6.83059L22.3549 6.45801C23.5968 6.08543 24.4662 6.33382 24.8388 7.20317C25.4597 8.32091 24.7146 9.43865 23.4726 10.1838C21.9823 10.929 20.6162 10.8048 19.871 9.43865L21.113 8.69349Z" fill="#FFB966"/>
<path d="M32.4145 6.83061L27.6952 8.07254L26.0806 1.98706L30.6758 0.745117L31.0484 1.98706L27.9435 2.85641L28.3161 4.09835L30.8 3.47738L31.1726 4.59512L28.6887 5.21609L29.0613 6.45802L32.2903 5.58867L32.4145 6.83061Z" fill="#FFB966"/>
<path d="M37.1338 6.33387L35.7677 1.73871L35.8919 6.33387H34.5258L34.4016 0.124194H36.7613L38.0032 4.22258L38.7484 0H40.9838L41.108 6.20968H39.6177L39.4935 1.61452L38.3758 6.20968L37.1338 6.33387Z" fill="#FFB966"/>
<path d="M46.4486 7.32723L43.4679 6.58207L44.9582 0.496582L47.6905 1.24175C49.305 1.61433 49.8018 2.48368 49.5534 3.47723C49.4292 4.0982 48.8082 4.47078 48.1873 4.47078C48.9324 4.84336 49.305 5.34013 49.0566 6.20949C48.8082 7.20304 47.8147 7.69981 46.4486 7.32723ZM45.455 4.47078L45.0824 5.83691L46.4486 6.20949C47.0695 6.33368 47.4421 6.20949 47.5663 5.71271C47.6905 5.34013 47.4421 4.96755 46.8211 4.84336L45.455 4.47078ZM45.7034 3.35304L46.9453 3.60142C47.5663 3.72562 47.9389 3.47723 47.9389 3.22884C48.0631 2.85626 47.8147 2.48368 47.1937 2.35949L45.9518 2.1111L45.7034 3.35304Z" fill="#FFB966"/>
<path d="M54.7695 3.72563L52.534 8.1966L55.3904 9.56273L54.8937 10.6805L50.6711 8.69337L53.4034 2.98047L54.7695 3.72563Z" fill="#FFB966"/>
<path d="M60.3583 14.903L56.6325 11.9223L60.4825 6.95459L64.2083 9.93523L63.4631 10.9288L60.8551 8.81749L60.1099 9.81104L62.097 11.4256L61.3518 12.4191L59.3647 10.8046L58.4954 11.7981L61.1034 13.9094L60.3583 14.903Z" fill="#FFB966"/>
<path d="M66.8162 12.4194L68.3065 14.2823C69.5484 15.8969 69.4243 17.6356 67.9339 18.8775C66.4436 20.1194 64.7049 19.871 63.463 18.2565L61.9726 16.3936L66.8162 12.4194ZM64.2081 17.3872C64.9533 18.2565 65.9468 18.3807 66.9404 17.6356C67.9339 16.8904 68.0581 15.8969 67.313 15.0275L66.8162 14.4065L63.8355 16.7662L64.2081 17.3872Z" fill="#FFB966"/>
<path d="M3.97411 34.4017L2.73218 34.2775C3.22895 30.4275 4.34669 26.5775 6.0854 23.1001L7.20315 23.5969C5.58863 27.0743 4.47089 30.6759 3.97411 34.4017Z" fill="#FFB966"/>
<path d="M72.6532 33.5323C72.0322 29.5581 70.7903 25.8323 68.9274 22.3549L70.0451 21.7339C72.0322 25.3355 73.3983 29.3097 74.0193 33.4081L72.6532 33.5323Z" fill="#FFB966"/>
<path d="M34.7234 47.2373V51.3195H33.2947" stroke="#FFB966" stroke-width="2.6534" stroke-linecap="round" stroke-linejoin="round"/>
<path d="M41.2695 29.1682L30.8722 31.2997C29.2709 31.6279 28.239 33.1921 28.5673 34.7933L30.6168 44.7908C30.945 46.392 32.5092 47.4239 34.1104 47.0957L44.5077 44.9642C46.109 44.6359 47.1409 43.0718 46.8126 41.4706L44.7631 31.4731C44.4349 29.8719 42.8707 28.8399 41.2695 29.1682Z" fill="#F9F7ED" stroke="#FFB966" stroke-width="2.24519"/>
<path d="M29.667 34.5678C29.4633 33.5739 30.1038 32.603 31.0976 32.3993L41.495 30.2678C42.4889 30.0641 43.4597 30.7046 43.6635 31.6984L43.8684 32.6982L29.872 35.5675L29.667 34.5678Z" fill="#FF5454"/>
<path d="M34.0615 28.5622C33.9143 27.8444 33.2131 27.3818 32.4953 27.529C31.7776 27.6761 31.315 28.3773 31.4621 29.0951L31.749 30.4947C31.8962 31.2125 32.5974 31.6751 33.3152 31.528C34.0329 31.3808 34.4955 30.6796 34.3484 29.9619L34.0615 28.5622Z" fill="#FFB966"/>
<path d="M39.8599 27.3732C39.7127 26.6555 39.0115 26.1929 38.2938 26.34C37.576 26.4872 37.1134 27.1883 37.2605 27.9061L37.5474 29.3058C37.6946 30.0236 38.3958 30.4862 39.1136 30.339C39.8313 30.1919 40.2939 29.4907 40.1468 28.7729L39.8599 27.3732Z" fill="#FFB966"/>
<path d="M37.1726 39.8896C36.6828 39.8896 36.2882 39.5494 36.1521 39.3794H38.1932C38.0571 39.5494 37.6625 39.8896 37.1726 39.8896Z" stroke="#1A1D26" stroke-width="0.816431" stroke-linecap="round" stroke-linejoin="round"/>
<path d="M29.2125 41.0122C28.556 41.8175 27.5245 42.5725 25.7426 42.4215" stroke="#FFB966" stroke-width="2.6534" stroke-linecap="round"/>
<path d="M50.8479 35.501C50.1914 36.3063 49.1599 37.0613 47.378 36.9103" stroke="#FFB966" stroke-width="2.6534" stroke-linecap="round"/>
<path d="M40.6425 46.8291V51.5236H39.2137" stroke="#FFB966" stroke-width="2.6534" stroke-linecap="round" stroke-linejoin="round"/>
<path d="M35.1315 37.7461C35.1315 37.2952 34.7659 36.9297 34.315 36.9297C33.8641 36.9297 33.4986 37.2952 33.4986 37.7461V38.7667C33.4986 39.2176 33.8641 39.5831 34.315 39.5831C34.7659 39.5831 35.1315 39.2176 35.1315 38.7667V37.7461Z" fill="#1A1D26"/>
<path d="M40.8465 37.7461C40.8465 37.2952 40.481 36.9297 40.0301 36.9297C39.5792 36.9297 39.2137 37.2952 39.2137 37.7461V38.7667C39.2137 39.2176 39.5792 39.5831 40.0301 39.5831C40.481 39.5831 40.8465 39.2176 40.8465 38.7667V37.7461Z" fill="#1A1D26"/>
</g>
<defs>
<clipPath id="clip0_1_215">
<rect width="77" height="77" fill="white"/>
</clipPath>
</defs>
</svg>

<svg width="77" height="77" fill="none" xmlns="http://www.w3.org/2000/svg"><g clip-path="url(#clip0_1_215)"><path d="M6.21 38.624L0 38.5v-1.49l6.21.124v1.49zm-2.98 7.203l3.725-.62.248 1.365-6.21.994-.248-1.242 3.478-3.477-3.85.62-.249-1.365 6.21-.994.248 1.49-3.353 3.23zm2.856 8.943c-.746.496-.746 1.241-.373 1.862.373.622.745.87 1.118.622.372-.249.248-.621.124-1.118l-.373-1.118c-.372-.994-.124-1.863.746-2.36 1.117-.62 2.235-.124 2.98 1.242.87 1.49.497 2.733-.62 3.354l-.746-1.242c.621-.373.745-.994.373-1.615-.249-.497-.746-.745-1.118-.497-.373.125-.249.497-.124.87l.372 1.117C8.818 57.13 8.57 58 7.7 58.495c-1.118.621-2.235 0-2.98-1.241-.87-1.49-.622-2.857.62-3.602l.746 1.118zm9.066 5.96l-2.981 6.086-1.118-1.242.621-1.366-1.739-1.863-1.242.621-.993-1.118 6.334-2.36 1.118 1.243zm-3.975 1.243l1.118 1.242.994-1.988-2.112.746zm8.446 7.079l2.11-3.105 1.119.745-3.478 5.216-.993-.62-.249-4.968-2.235 3.353-1.118-.745 3.477-5.217 1.242.746.125 4.595zm6.83 6.085l1.615-6.085 4.47 1.242-.372 1.242-2.98-.746-.373 1.367 2.235.62-.372 1.242-2.111-.869-.622 2.36-1.49-.373zM38.376 77c-.124-.124-.249-.62-.249-1.242 0-.745-.372-.993-.993-.993h-1.242l-.124 2.111h-1.49l.248-6.21 2.98.125c1.615 0 2.36.869 2.36 1.987 0 .87-.62 1.49-1.366 1.49.62.124.993.497 1.118 1.242 0 .87.124 1.242.248 1.49h-1.49zm-1.118-3.477c.745 0 1.118-.124 1.242-.745 0-.497-.373-.87-1.118-.87H36.14v1.74l1.118-.125zm8.445-3.726l3.85 5.589-1.614.372-.87-1.242-2.483.497-.249 1.49-1.49.373 1.118-6.707 1.738-.372zm-.87 4.098l1.615-.372-1.242-1.863-.372 2.235zm10.309-3.602l-1.615-3.353 1.242-.62 2.733 5.588-1.118.497-4.223-2.236 1.739 3.602-1.242.62-2.732-5.588 1.366-.62 3.85 2.11zm3.726-7.078c1.49-1.243 2.98-.994 4.098.248l-1.118.993c-.62-.496-1.366-.745-2.111-.124-.745.621-.745 1.615 0 2.484.745.87 1.739 1.118 2.484.497.745-.621.745-1.49.248-2.111l1.118-.87c.87 1.242.87 2.857-.621 4.099-1.366 1.117-3.229.993-4.47-.497-1.243-1.739-.995-3.602.372-4.72zm4.719-4.72l4.844 3.974-.994 1.118-4.72-3.974.87-1.118zm5.589-.869c.745.373 1.366 0 1.739-.62.372-.622.372-1.119 0-1.243-.373-.248-.621.124-.994.497l-.87.87c-.62.744-1.49 1.117-2.359.62-1.118-.62-1.242-1.863-.497-3.105.87-1.49 1.987-1.862 3.23-1.241l-.622 1.241c-.62-.372-1.242-.124-1.614.621-.373.497-.249.994.124 1.242.248.125.62 0 .87-.372l.744-.87c.87-.993 1.74-1.241 2.608-.62 1.118.62 1.118 1.987.373 3.228-.87 1.49-2.111 2.112-3.477 1.367l.745-1.615zm0-10.184c.497-1.863 1.987-2.484 3.477-2.111l-.372 1.366c-.746-.124-1.615.124-1.863 1.118-.249.993.248 1.738 1.366 2.11 1.118.373 1.987 0 2.235-.993.249-.993-.248-1.614-.993-1.987l.497-1.366c1.49.497 2.36 1.863 1.738 3.726-.496 1.739-2.111 2.732-3.974 2.111-1.739-.62-2.608-2.235-2.111-3.974zM77 39.99c-.124 1.863-1.49 3.105-3.353 3.105-1.863 0-3.23-1.49-3.105-3.353.124-1.863 1.49-3.229 3.353-3.105 1.863 0 3.105 1.49 3.105 3.353zm-5.216-.248c0 .994.745 1.739 1.863 1.739 1.118 0 1.987-.621 1.987-1.615 0-.993-.745-1.738-1.863-1.738-1.118 0-1.987.62-1.987 1.614zM7.824 15.276l6.582 1.614-.993 1.242-1.366-.372-1.49 2.111.745 1.242-.87 1.242-3.601-5.713.993-1.366zm2.111 3.602l.994-1.367-2.235-.62 1.241 1.987zm4.968-5.589c.621.62 1.366.497 1.863 0 .497-.373.621-.87.373-1.242-.249-.373-.497-.124-.994.124l-.993.621c-.87.497-1.74.497-2.484-.248-.745-.994-.621-2.112.62-3.105 1.243-1.118 2.485-1.118 3.478 0l-.993.993c-.497-.496-1.118-.496-1.615 0-.497.373-.62.87-.248 1.118.248.248.496.248.993 0l.994-.62c1.118-.622 1.987-.622 2.608.248.87.993.372 2.235-.621 3.104-1.242 1.118-2.732 1.242-3.726.125l.745-1.118zm6.21-4.596c.497.746 1.242.746 1.863.373.62-.248.87-.745.62-1.118-.248-.372-.62-.248-1.117-.124l-1.118.373c-.993.248-1.863.124-2.36-.745-.62-1.118-.123-2.236 1.243-2.981 1.49-.745 2.732-.497 3.353.745l-1.242.745c-.373-.62-.994-.745-1.615-.372-.62.248-.745.745-.496 1.117.124.373.496.249.869.125l1.242-.373c1.242-.373 2.111-.124 2.484.745.62 1.118-.124 2.236-1.366 2.98-1.49.746-2.857.622-3.602-.744l1.242-.746zM32.414 6.83l-4.719 1.243-1.614-6.086L30.676.745l.372 1.242-3.104.87.372 1.241 2.484-.62.373 1.117-2.484.621.372 1.242 3.23-.87.123 1.243zm4.72-.496l-1.366-4.595.124 4.595h-1.366l-.124-6.21h2.36l1.241 4.099L38.748 0h2.236l.124 6.21h-1.49l-.125-4.595-1.117 4.595-1.242.124zm9.315.993l-2.981-.745 1.49-6.085 2.733.745c1.614.372 2.11 1.242 1.862 2.235-.124.621-.745.994-1.366.994.745.372 1.118.87.87 1.738-.249.994-1.242 1.49-2.608 1.118zm-.994-2.856l-.373 1.366 1.367.372c.62.125.993 0 1.117-.496.124-.373-.124-.745-.745-.87l-1.366-.372zm.248-1.118l1.242.248c.621.125.994-.124.994-.372.124-.373-.124-.745-.745-.87l-1.242-.248-.249 1.242zm9.067.373l-2.236 4.47 2.856 1.367-.496 1.117-4.223-1.987 2.732-5.713 1.367.746zm5.588 11.177l-3.725-2.98 3.85-4.968 3.725 2.98-.745.994-2.608-2.112-.745.994 1.987 1.615-.745.993-1.987-1.614-.87.993 2.608 2.111-.745.994zm6.458-2.483l1.49 1.862c1.242 1.615 1.118 3.354-.372 4.596-1.49 1.241-3.23.993-4.471-.622l-1.49-1.862 4.843-3.975zm-2.608 4.967c.745.87 1.739.994 2.732.249.994-.746 1.118-1.74.373-2.608l-.497-.622-2.98 2.36.372.621zM3.974 34.402l-1.242-.124c.497-3.85 1.615-7.7 3.353-11.178l1.118.497c-1.614 3.477-2.732 7.079-3.229 10.805zm68.679-.87a34.873 34.873 0 00-3.726-11.177l1.118-.621a35.154 35.154 0 013.974 11.674l-1.366.124z" fill="#FFB966"/><path d="M34.723 47.237v4.082h-1.428" stroke="#FFB966" stroke-width="2.653" stroke-linecap="round" stroke-linejoin="round"/><path d="M41.27 29.168L30.872 31.3a2.96 2.96 0 00-2.305 3.493l2.05 9.998a2.96 2.96 0 003.493 2.305l10.398-2.132a2.96 2.96 0 002.305-3.493l-2.05-9.998a2.96 2.96 0 00-3.493-2.305z" fill="#F9F7ED" stroke="#FFB966" stroke-width="2.245"/><path d="M29.667 34.568a1.837 1.837 0 011.43-2.169l10.398-2.131a1.837 1.837 0 012.169 1.43l.204 1-13.996 2.87-.205-1z" fill="#FF5454"/><path d="M34.062 28.562a1.327 1.327 0 00-2.6.533l.287 1.4a1.327 1.327 0 002.6-.533l-.287-1.4zm5.798-1.189a1.327 1.327 0 00-2.6.533l.287 1.4a1.327 1.327 0 002.6-.533l-.287-1.4z" fill="#FFB966"/><path d="M37.173 39.89c-.49 0-.885-.34-1.02-.51h2.04c-.136.17-.53.51-1.02.51z" stroke="#1A1D26" stroke-width=".816" stroke-linecap="round" stroke-linejoin="round"/><path d="M29.212 41.012c-.656.806-1.688 1.56-3.47 1.41m25.106-6.921c-.657.805-1.688 1.56-3.47 1.41" stroke="#FFB966" stroke-width="2.653" stroke-linecap="round"/><path d="M40.642 46.83v4.694h-1.428" stroke="#FFB966" stroke-width="2.653" stroke-linecap="round" stroke-linejoin="round"/><path d="M35.132 37.746a.816.816 0 00-1.633 0v1.02a.816.816 0 101.633 0v-1.02zm5.714 0a.816.816 0 10-1.632 0v1.02a.816.816 0 101.633 0v-1.02z" fill="#1A1D26"/></g><defs><clipPath id="clip0_1_215"><path fill="#fff" d="M0 0h77v77H0z"/></clipPath></defs></svg>
